X:1
T:[ID 4-16r]
T:[ID 4-16r]
T:Bezeichnung standardisiert: Heintrop ist ein gut Plaisier; Courant Heintrop (?) ist ein gut Plesier In dieser Quelle auch als: Heindrop ist ein gut Pleesier In dieser Quelle auch als: Tantz Heintrop ist ein gut Pleesier
T:Urheber unbekannt Datum in der hier transkribierten schriftlichen Quelle: 1792
C:Urheber unbekannt
C:Datum in der hier transkribierten schriftlichen Quelle: 1792
L:1/8
M:2/4
K:D
V:1 treble 
V:1
 dddf | e/f/e/c/ df | e/f/e/c/ d2 | fffa | gg/e/ fa | gg/e/ f2 :: fgaf | ga b2 | efge | fg a2 | %10
 dddf | e/f/e/c/ df | e/f/e/c/ d2 :| %13

